public/assets/techs/git.svg

<svg width="20" height="20" viewBox="0 0 20 20" fill="none" xmlns="http://www.w3.org/2000/svg">
<path d="M10 1.25C9.68506 1.25 9.37744 1.36475 9.14062 1.60156L7.38281 3.37891C7.2876 3.43018 7.20703 3.50342 7.14844 3.59375L1.60156 9.14062C1.12793 9.61182 1.12793 10.3857 1.60156 10.8594L9.14062 18.3984C9.61426 18.8696 10.3857 18.8696 10.8594 18.3984L18.3984 10.8594C18.8721 10.3882 18.8721 9.61426 18.3984 9.14062L10.8594 1.60156C10.6226 1.36475 10.3149 1.25 10 1.25ZM10 2.51953L17.4805 10L10 17.4805L2.51953 10L7.69531 4.82422L8.78906 5.91797C8.75977 6.02295 8.75 6.13525 8.75 6.25C8.75 6.71143 9.00146 7.10693 9.375 7.32422V12.6758C9.00146 12.8931 8.75 13.2886 8.75 13.75C8.75 14.4409 9.30908 15 10 15C10.6909 15 11.25 14.4409 11.25 13.75C11.25 13.2886 10.9985 12.8931 10.625 12.6758V7.77344L12.5391 9.6875C12.5122 9.7876 12.5 9.89258 12.5 10C12.5 10.6909 13.0591 11.25 13.75 11.25C14.4409 11.25 15 10.6909 15 10C15 9.30908 14.4409 8.75 13.75 8.75C13.6426 8.75 13.5376 8.76221 13.4375 8.78906L11.2109 6.5625C11.2378 6.4624 11.25 6.35742 11.25 6.25C11.25 5.55908 10.6909 5 10 5C9.88525 5 9.77295 5.00977 9.66797 5.03906L8.57422 3.94531L10 2.51953Z" fill="#EEEEEE"/>
</svg>

<svg xmlns="http://www.w3.org/2000/svg" width="20" height="20" fill="none" xmlns:v="https://vecta.io/nano"><path d="M10 1.25a1.2 1.2 0 0 0-.859.352L7.383 3.379a.64.64 0 0 0-.234.215L1.602 9.141c-.474.471-.474 1.245 0 1.719l7.539 7.539a1.22 1.22 0 0 0 1.719 0l7.539-7.539c.474-.471.474-1.245 0-1.719l-7.539-7.539A1.2 1.2 0 0 0 10 1.25zm0 1.27l7.48 7.48-7.48 7.48L2.52 10l5.176-5.176 1.094 1.094c-.029.105-.039.217-.039.332a1.24 1.24 0 0 0 .625 1.074v5.352a1.24 1.24 0 0 0-.625 1.074 1.25 1.25 0 1 0 2.5 0 1.24 1.24 0 0 0-.625-1.074V7.773l1.914 1.914c-.027.1-.039.205-.039.313a1.25 1.25 0 1 0 2.5 0 1.25 1.25 0 0 0-1.25-1.25c-.107 0-.212.012-.312.039l-2.227-2.227c.027-.1.039-.205.039-.312A1.25 1.25 0 0 0 10 5c-.115 0-.227.01-.332.039L8.574 3.945 10 2.52z" fill="#f34f29"/></svg>
